public/images/broadcasters/err.svg

<svg clip-rule="evenodd" fill-rule="evenodd" stroke-linejoin="round" stroke-miterlimit="2" viewBox="0 0 490 180" xmlns="http://www.w3.org/2000/svg"><path d="m400.532 88.202-12.575-16.702h.264c17.602 0 31.863-14.185 31.871-31.754-.008-17.573-14.254-31.854-31.86-31.86h-31.752c-12.557 0-26.727 6.379-32.873 24.396l-17.109 51.312c-2.839 7.185-7.123 9.255-11.126 9.255h-5.378c-3.549 0-6.555-1.476-8.568-4.117v.003l-12.95-17.235h.264c17.605 0 31.864-14.185 31.871-31.754-.007-17.573-14.254-31.854-31.86-31.86h-31.749c-12.556 0-26.728 6.379-32.874 24.396l-17.116 51.312c-2.84 7.185-7.125 9.255-11.127 9.255h-74.412c-5.953-.007-10.779-4.678-10.789-10.621 0-1.182.186-2.221.511-3.256l13.501-40.591c1.569-4.854 5.426-9.048 11.225-9.253h33.343c5.964.004 10.609 4.667 10.621 10.618-.011 5.952-4.657 10.61-10.621 10.621h-26.549l-7.009 21.239h33.558c17.609 0 31.856-14.291 31.859-31.86-.003-17.573-14.25-31.854-31.859-31.86h-31.861c-12.557 0-26.727 6.379-32.87 24.396l-13.365 40.155c-1.021 3.165-1.563 6.41-1.555 9.791.004 17.456 14.401 31.685 31.86 31.86.029 0 .037 0 .033 0h74.378c11.631 0 25.125-6.352 31.291-24.365l17.12-51.342c1.566-4.854 5.422-9.048 11.225-9.253h33.23c5.953.004 10.6 4.667 10.62 10.618-.021 5.952-4.667 10.61-10.62 10.621h-21.237c-3.996 0-7.738 2.347-9.531 5.916-1.789 3.571-1.394 7.819.999 11.013l25.521 33.972c.025.037.055.073.081.103 5.773 7.698 15.016 12.726 25.41 12.718h5.378c11.628 0 25.118-6.352 31.282-24.365l17.119-51.342c1.566-4.854 5.423-9.048 11.226-9.253h33.232c5.952.004 10.599 4.667 10.621 10.618-.022 5.952-4.669 10.61-10.621 10.621h-21.239c-3.995 0-7.742 2.347-9.531 5.916-1.789 3.571-1.397 7.819.999 11.013 0 0 25.304 33.745 25.329 33.774 6.069 8.262 12.355 11.843 20.471 13.018l6.582-20.328c-3.877-.733-7.898-2.489-10.309-5.559z" fill="#fff" transform="matrix(1.37082 0 0 1.37082 -90.6495 6.3969)"/></svg>

<?xml version="1.0" encoding="UTF-8" standalone="no"?>
<!DOCTYPE svg PUBLIC "-//W3C//DTD SVG 1.1//EN" "http://www.w3.org/Graphics/SVG/1.1/DTD/svg11.dtd">
<svg width="100%" height="100%" viewBox="0 0 490 180" version="1.1" xmlns="http://www.w3.org/2000/svg" xmlns:xlink="http://www.w3.org/1999/xlink" xml:space="preserve" xmlns:serif="http://www.serif.com/" style="fill-rule:evenodd;clip-rule:evenodd;stroke-linejoin:round;stroke-miterlimit:2;">
    <g transform="matrix(1.37082,0,0,1.37082,-90.6495,6.3969)">
        <path d="M400.532,88.202L387.957,71.5L388.221,71.5C405.823,71.5 420.084,57.315 420.092,39.746C420.084,22.173 405.838,7.892 388.232,7.886L356.48,7.886C343.923,7.886 329.753,14.265 323.607,32.282L306.498,83.594C303.659,90.779 299.375,92.849 295.372,92.849L289.994,92.849C286.445,92.849 283.439,91.373 281.426,88.732L281.426,88.735L268.476,71.5L268.74,71.5C286.345,71.5 300.604,57.315 300.611,39.746C300.604,22.173 286.357,7.892 268.751,7.886L237.002,7.886C224.446,7.886 210.274,14.265 204.128,32.282L187.012,83.594C184.172,90.779 179.887,92.849 175.885,92.849L101.473,92.849C95.52,92.842 90.694,88.171 90.684,82.228C90.684,81.046 90.87,80.007 91.195,78.972L104.696,38.381C106.265,33.527 110.122,29.333 115.921,29.128L149.264,29.128C155.228,29.132 159.873,33.795 159.885,39.746C159.874,45.698 155.228,50.356 149.264,50.367L122.715,50.367L115.706,71.606L149.264,71.606C166.873,71.606 181.12,57.315 181.123,39.746C181.12,22.173 166.873,7.892 149.264,7.886L117.403,7.886C104.846,7.886 90.676,14.265 84.533,32.282L71.168,72.437C70.147,75.602 69.605,78.847 69.613,82.228C69.617,99.684 84.014,113.913 101.473,114.088C101.502,114.088 101.51,114.088 101.506,114.088L175.884,114.088C187.515,114.088 201.009,107.736 207.175,89.723L224.295,38.381C225.861,33.527 229.717,29.333 235.52,29.128L268.75,29.128C274.703,29.132 279.35,33.795 279.37,39.746C279.349,45.698 274.703,50.356 268.75,50.367L247.513,50.367C243.517,50.367 239.775,52.714 237.982,56.283C236.193,59.854 236.588,64.102 238.981,67.296L264.502,101.268C264.527,101.305 264.557,101.341 264.583,101.371C270.356,109.069 279.599,114.097 289.993,114.089L295.371,114.089C306.999,114.089 320.489,107.737 326.653,89.724L343.772,38.382C345.338,33.528 349.195,29.334 354.998,29.129L388.23,29.129C394.182,29.133 398.829,33.796 398.851,39.747C398.829,45.699 394.182,50.357 388.23,50.368L366.991,50.368C362.996,50.368 359.249,52.715 357.46,56.284C355.671,59.855 356.063,64.103 358.459,67.297C358.459,67.297 383.763,101.042 383.788,101.071C389.857,109.333 396.143,112.914 404.259,114.089L410.841,93.761C406.964,93.028 402.943,91.272 400.532,88.202Z" style="fill:white;"/>
    </g>
</svg>
